assets/images/home.svg

<svg width="29" height="30" viewBox="0 0 29 30" fill="none" xmlns="http://www.w3.org/2000/svg">
<path d="M11.4229 1.92041C13.1598 0.314922 15.8402 0.314895 17.5771 1.92041L26.7578 10.4087C27.6856 11.2665 28.2137 12.4732 28.2139 13.7368V24.7339C28.2138 27.2372 26.184 29.267 23.6807 29.2671H19.9434V23.2407H19.9385C19.9005 21.594 19.3908 20.1439 18.5361 19.0679V18.9136H18.4102C17.448 17.7871 16.0888 17.1099 14.499 17.1099C13.0285 17.11 11.629 17.5839 10.6055 18.6919C9.58922 19.7921 9.0558 21.3967 9.05566 23.438H9.09961V29.2671H5.31934C2.81603 29.267 0.78619 27.2372 0.786133 24.7339V13.7368C0.786332 12.4732 1.31433 11.2665 2.24219 10.4087L11.4229 1.92041Z" fill="#EF3124"/>
</svg>

<svg xmlns="http://www.w3.org/2000/svg" width="29" height="30" fill="none"><path fill="#EF3124" d="M11.423 1.92a4.534 4.534 0 0 1 6.154 0l9.18 8.489a4.53 4.53 0 0 1 1.457 3.328v10.997a4.534 4.534 0 0 1-4.533 4.533h-3.738v-6.026h-.005c-.037-1.647-.547-3.097-1.402-4.173v-.154h-.126A5.05 5.05 0 0 0 14.5 17.11c-1.47 0-2.87.474-3.894 1.582-1.016 1.1-1.55 2.705-1.55 4.746H9.1v5.83H5.32a4.534 4.534 0 0 1-4.534-4.534V13.737c0-1.264.528-2.47 1.456-3.328z"/></svg>
